X:42
M:C|
L:1/8
K:E
a|gfea gebe|f=daf fdda|gfea gebg|afdB e2 ea|gfeb gebe|f=dad fdda|
gebg afdB|cAfd e2e||

